modules/hawcons-stroke/icons/icon-59-degree-fahrenheit.svg

<?xml version="1.0" encoding="UTF-8" standalone="no"?>
<svg width="32px" height="32px" viewBox="0 0 32 32" version="1.1" xmlns="http://www.w3.org/2000/svg" xmlns:xlink="http://www.w3.org/1999/xlink" xmlns:sketch="http://www.bohemiancoding.com/sketch/ns">
    <!-- Generator: Sketch 3.0.3 (7891) - http://www.bohemiancoding.com/sketch -->
    <title>icon 59 degree fahrenheit</title>
    <desc>Created with Sketch.</desc>
    <defs></defs>
    <g id="Page-1" stroke="none" stroke-width="1" fill="none" fill-rule="evenodd" sketch:type="MSPage">
        <g id="icon-59-degree-fahrenheit" sketch:type="MSArtboardGroup" fill="#929292">
            <path d="M9,14 C11.2091391,14 13,12.2091391 13,10 C13,7.79086089 11.2091391,6 9,6 C6.79086089,6 5,7.79086089 5,10 C5,12.2091391 6.79086089,14 9,14 L9,14 Z M9,13 C10.6568543,13 12,11.6568543 12,10 C12,8.34314567 10.6568543,7 9,7 C7.34314567,7 6,8.34314567 6,10 C6,11.6568543 7.34314567,13 9,13 L9,13 Z M20.0021863,6 C17.2395551,6 15,8.23603796 15,10.9952534 L15,25.5056152 C15,25.7786564 15.2319336,26 15.5,26 L15.5,26 C15.7761424,26 16,25.7723472 16,25.4903505 L16,16 L22.4965773,16 C22.77461,16 23,15.7680664 23,15.5 L23,15.5 C23,15.2238576 22.7670975,15 22.4965773,15 L16,15 L16,11 C16,8.790861 17.7918218,7 20.0023695,7 L26.4987692,7 C26.7755913,7 27,6.76806641 27,6.5 L27,6.5 C27,6.22385763 26.7709994,6 26.4996527,6 L20.0021863,6 L20.0021863,6 Z" id="degree-fahrenheit" sketch:type="MSShapeGroup"></path>
        </g>
    </g>
</svg>

<svg width="32" height="32" xmlns="http://www.w3.org/2000/svg"><path d="M9 14a4 4 0 1 0 0-8 4 4 0 0 0 0 8zm0-1a3 3 0 1 0 0-6 3 3 0 0 0 0 6zm11.002-7A4.998 4.998 0 0 0 15 10.995v14.51c0 .274.232.495.5.495.276 0 .5-.228.5-.51V16h6.497a.507.507 0 0 0 .503-.5c0-.276-.233-.5-.503-.5H16v-4c0-2.21 1.792-4 4.002-4H26.5A.506.506 0 0 0 27 6.5c0-.276-.229-.5-.5-.5h-6.498z" fill="#929292" fill-rule="evenodd"/></svg>
